X:170
T:Maudabawn Chapel                                                                                  
N:Ed Reavy (1898-1988)                                                                              
M:C|                                                                                                
K:EDor                                                                                              
G3D E2D[FB,]|[GG,][AA,][BB,][dD] [eE][BB,][dD][BB,]|\                                               
[GG,][AA,][FB,]D GABd|gabg eaaf|                                                                    
gabg efge|dged B^cde|g2fa gedB|A=cBA GEED:|                                                         
|:E2BE dEBE|E2BE AFDF|E3F GFGB|AF F2 DF F2|                                                         
EBBA B3A|BAGA B^cde|f3a gfe^c|dBAF GEED:|
